X:260
T: Pristella
C: R-148
C: Qubec
M: C|
Z: Transcribed to abc by Debby Knight
R: Reel
K:G
"G"G3G GDGB|      "C"cBAB "G"G3B| "C"c2Ac "G"BAGB| "A"AEFG "D"AFED|
"G"G2(3DGD B,DGB| "C"cBAB "G"G3B| "C"cBAc "G"BAGB| "D"AEFD "G"G4 :|
|:\
"Am"A3A AEAB| cdcB "D7"Ac-c2| "G"B3B  BcBA| GFGA  "Em"BAGB|
"Am"A3A AEAB| cdcB "D7"Ac-c2| "Em"B3B BcBA| "Bm"GBB,F "Em"E4 :|
%%text 02/07/01
% ---------- page 135 ----------
